svg/star_shooting_outline.svg

<svg xmlns="http://www.w3.org/2000/svg" viewBox="0 0 24 24"><path d="m23 7.5-6.47-.54L14 1l-2.53 5.96L5 7.5l4.9 4.27-1.46 6.33L14 14.74l5.56 3.36-1.47-6.33zm-6.86 4.73.4 1.71-1.51-.91-1.03-.62-1.03.62-1.51.91.39-1.71.28-1.18-.91-.79L9.88 9.1l1.76-.15 1.2-.1.47-1.11.69-1.62.69 1.62.47 1.11 1.2.1 1.75.15-1.33 1.16-.92.79zM1.16 12c-.299-.5-.171-1.11.29-1.41l2.73-1.8 1.57 1.36-3.2 2.11c-.17.11-.36.17-.55.17-.32 0-.64-.16-.84-.43m.29 8.16 5.86-3.85L7 17.76l-.34 1.37-4.11 2.71c-.17.11-.36.16-.55.16-.32 0-.64-.16-.84-.45a1.013 1.013 0 0 1 .29-1.39m5.87-8.66.92.81-.27 1.19-5.42 3.55c-.17.11-.36.16-.55.16-.32 0-.64-.15-.84-.45a1 1 0 0 1 .29-1.38z"/></svg>

<svg xmlns="http://www.w3.org/2000/svg" id="mdi-star-shooting-outline" viewBox="0 0 24 24"><path d="M23 7.5L16.53 6.96L14 1L11.47 6.96L5 7.5L9.9 11.77L8.44 18.1L14 14.74L19.56 18.1L18.09 11.77L23 7.5M16.14 12.23L16.54 13.94L15.03 13.03L14 12.41L12.97 13.03L11.46 13.94L11.85 12.23L12.13 11.05L11.22 10.26L9.88 9.1L11.64 8.95L12.84 8.85L13.31 7.74L14 6.12L14.69 7.74L15.16 8.85L16.36 8.95L18.11 9.1L16.78 10.26L15.86 11.05L16.14 12.23M1.16 12C.861 11.5 .989 10.89 1.45 10.59L4.18 8.79L5.75 10.15L2.55 12.26C2.38 12.37 2.19 12.43 2 12.43C1.68 12.43 1.36 12.27 1.16 12M1.45 20.16L7.31 16.31L7 17.76L6.66 19.13L2.55 21.84C2.38 21.95 2.19 22 2 22C1.68 22 1.36 21.84 1.16 21.55C.861 21.09 .989 20.47 1.45 20.16M7.32 11.5L8.24 12.31L7.97 13.5L2.55 17.05C2.38 17.16 2.19 17.21 2 17.21C1.68 17.21 1.36 17.06 1.16 16.76C.861 16.3 .989 15.68 1.45 15.38L7.32 11.5Z" /></svg>
